flaticon/interaction/bookmark-17.svg

<svg xmlns="http://www.w3.org/2000/svg" width="32" height="32" viewBox="0 0 24 24">
    <path d="M 21 23.144531 L 20.570312 23.144531 L 20.570312 22.132812 C 20.570312 20.617188 19.78125 19.238281 18.503906 18.429688 C 19.78125 17.617188 20.570312 16.242188 20.570312 14.726562 L 20.570312 13.714844 L 21 13.714844 C 21.238281 13.714844 21.429688 13.523438 21.429688 13.285156 C 21.429688 13.046875 21.238281 12.855469 21 12.855469 L 13.285156 12.855469 C 13.046875 12.855469 12.855469 13.046875 12.855469 13.285156 C 12.855469 13.523438 13.046875 13.714844 13.285156 13.714844 L 13.714844 13.714844 L 13.714844 14.726562 C 13.714844 16.242188 14.503906 17.617188 15.78125 18.429688 C 14.503906 19.238281 13.714844 20.617188 13.714844 22.132812 L 13.714844 23.144531 L 13.285156 23.144531 C 13.046875 23.144531 12.855469 23.335938 12.855469 23.570312 C 12.855469 23.808594 13.046875 24 13.285156 24 L 21 24 C 21.238281 24 21.429688 23.808594 21.429688 23.570312 C 21.429688 23.335938 21.238281 23.144531 21 23.144531 Z M 14.570312 14.726562 L 14.570312 13.714844 L 19.714844 13.714844 L 19.714844 14.726562 C 19.714844 16.148438 18.84375 17.425781 17.488281 18 L 16.800781 18 C 15.441406 17.425781 14.570312 16.148438 14.570312 14.726562 Z M 14.570312 22.132812 C 14.570312 20.710938 15.441406 19.433594 16.796875 18.855469 L 17.488281 18.855469 C 18.84375 19.433594 19.714844 20.707031 19.714844 22.132812 L 19.714844 23.144531 L 14.570312 23.144531 Z M 14.570312 22.132812"/>
    <path d="M 9.855469 16.445312 L 3.429688 22.871094 L 3.429688 5.570312 L 16.285156 5.570312 L 16.285156 11.144531 C 16.285156 11.378906 16.476562 11.570312 16.714844 11.570312 C 16.953125 11.570312 17.144531 11.378906 17.144531 11.144531 L 17.144531 0 L 2.570312 0 L 2.570312 23.332031 C 2.570312 23.601562 2.734375 23.84375 2.984375 23.949219 C 3.066406 23.984375 3.152344 24 3.238281 24 C 3.410156 24 3.582031 23.933594 3.710938 23.804688 L 9.855469 17.65625 L 11.316406 19.113281 C 11.480469 19.28125 11.753906 19.28125 11.921875 19.113281 C 12.089844 18.945312 12.089844 18.675781 11.921875 18.507812 Z M 3.429688 0.855469 L 16.285156 0.855469 L 16.285156 4.714844 L 3.429688 4.714844 Z M 3.429688 0.855469"/>
</svg>

<svg xmlns="http://www.w3.org/2000/svg" width="32" height="32" viewBox="0 0 24 24">
    <path d="M21 23.145h-.43v-1.012c0-1.516-.789-2.895-2.066-3.703 1.277-.813 2.066-2.188 2.066-3.703v-1.012H21c.238 0 .43-.192.43-.43a.428.428 0 0 0-.43-.43h-7.715a.428.428 0 0 0-.43.43c0 .238.192.43.43.43h.43v1.012c0 1.515.789 2.89 2.066 3.703-1.277.808-2.066 2.187-2.066 3.703v1.012h-.43a.428.428 0 1 0 0 .855H21a.428.428 0 1 0 0-.855zm-6.43-8.418v-1.012h5.145v1.012c0 1.421-.871 2.699-2.227 3.273h-.687c-1.36-.574-2.23-1.852-2.23-3.273zm0 7.406c0-1.422.871-2.7 2.227-3.278h.691c1.356.579 2.227 1.852 2.227 3.278v1.012H14.57zm0 0"/>
    <path d="M9.855 16.445L3.43 22.871v-17.3h12.855v5.574c0 .234.192.425.43.425s.43-.191.43-.425V0H2.57v23.332a.672.672 0 0 0 .668.668.669.669 0 0 0 .473-.195l6.144-6.149 1.461 1.457a.427.427 0 0 0 .606 0 .427.427 0 0 0 0-.605zM3.43.855h12.855v3.86H3.43zm0 0"/>
</svg>
